images/companyLogos/FinOptimal-card.svg

<svg width="110" height="16" viewBox="0 0 110 16" fill="none" xmlns="http://www.w3.org/2000/svg">
<path d="M19.8472 12.9799L22.1698 12.9799L22.1698 8.2672L25.8177 8.2672L26.3844 6.48195L22.1687 6.48195L22.1687 3.30491C24.6613 2.59865 28.0934 3.30491 28.0934 3.30491L28.0934 1.05863C25.5964 0.513682 22.5938 0.653188 19.8472 1.21993L19.8472 12.9799Z" fill="#22154F"/>
<path d="M31.6508 4.1333L29.3282 4.1333L29.3282 12.98L31.6508 12.98L31.6508 4.1333Z" fill="#22154F"/>
<path d="M39.1689 3.95898C37.8261 3.95898 36.7362 4.65434 36.151 6.0603L36.151 4.13337L33.86 4.36988L33.86 12.9801L36.1662 12.9801L36.1662 8.5093C36.1662 6.88209 36.8616 5.88701 38.1411 5.88701C39.4839 5.88701 40.0528 6.70879 40.0528 8.11476L40.0528 12.9801L42.359 12.9801L42.359 7.46627C42.359 6.40798 42.0745 5.57094 41.4904 4.92245C40.9062 4.27505 40.1324 3.95898 39.1689 3.95898Z" fill="#22154F"/>
<path d="M63.5204 4.03857C62.1297 4.03857 61.0398 4.67071 60.4556 5.95025L60.4556 4.1334L58.1646 4.1334L58.1646 15.7506L60.4709 15.5217L60.4709 11.258C60.9918 12.3959 61.94 13.0749 63.3307 13.0749C65.4321 13.0749 67.1541 11.464 67.1541 8.49298C67.1541 5.44454 65.4953 4.03857 63.5204 4.03857ZM62.5569 11.1948C60.9144 11.1948 60.3139 10.1365 60.3139 8.55619C60.3139 6.99219 60.9929 5.87069 62.5569 5.87069C64.1525 5.87069 64.7999 6.97693 64.7999 8.55619C64.7999 10.1202 64.1525 11.1948 62.5569 11.1948Z" fill="#22154F"/>
<path d="M73.2695 5.62426L73.4449 3.72893C72.3779 3.7213 71.0123 4.02429 71.0123 4.02429L71.0123 0.689209L68.8794 0.897379L68.8477 10.0569C68.8477 12.0634 69.6848 13.1369 71.7076 13.1369C72.4499 13.1369 72.9556 12.9952 73.4449 12.726L73.4449 10.8939C73.0024 11.0835 72.7343 11.1784 72.2755 11.1784C71.4537 11.1784 71.0112 10.7522 71.0112 9.78766L71.0112 5.91853C71.0123 5.91962 71.9376 5.63734 73.2695 5.62426Z" fill="#22154F"/>
<path d="M107.567 0.689209L105.434 0.897379L105.403 10.0569C105.403 12.0634 106.24 13.1369 108.263 13.1369C109.005 13.1369 109.511 12.9952 110 12.726L110 10.8939C109.558 11.0835 109.289 11.1784 108.831 11.1784C108.009 11.1784 107.566 10.7522 107.566 9.78766L107.566 0.689209L107.567 0.689209Z" fill="#22154F"/>
<path d="M77.5527 4.1333L75.2301 4.1333L75.2301 12.98L77.5527 12.98L77.5527 4.1333Z" fill="#22154F"/>
<path d="M90.6642 3.95898C89.3367 3.95898 88.2947 4.6696 87.7095 5.99709C87.3149 4.73281 86.3351 3.95898 84.9444 3.95898C83.6169 3.95898 82.685 4.62273 82.1325 6.01235L82.1325 4.13337L79.8415 4.37314L79.8415 12.9801L82.1477 12.9801L82.1477 8.5093C82.1477 6.88209 82.6534 5.88701 83.9166 5.88701C85.2278 5.88701 85.607 6.70879 85.607 8.11476L85.607 12.9801L87.9133 12.9801L87.9133 8.5093C87.9133 6.88209 88.419 5.88701 89.6822 5.88701C90.9933 5.88701 91.3726 6.70879 91.3726 8.11476L91.3726 12.9801L93.6788 12.9801L93.6788 7.46627C93.6821 5.36495 92.5606 3.95898 90.6642 3.95898Z" fill="#22154F"/>
<path d="M103.587 7.29189C103.587 5.03253 102.118 3.95898 99.9217 3.95898C97.9632 3.95898 96.3044 4.85924 95.5611 6.80252L97.646 7.40306C97.9621 6.39163 98.6727 5.76058 99.8106 5.76058C100.948 5.76058 101.39 6.21834 101.39 6.78726C101.39 7.05538 101.28 7.26137 101.059 7.43466C100.854 7.5927 100.38 7.75073 99.6525 7.89242C97.9469 8.22375 97.0771 8.49295 96.4461 8.88749C95.7987 9.31364 95.3562 9.89892 95.3562 10.9093C95.3562 12.3 96.4461 13.137 98.1528 13.137C99.6089 13.137 100.875 12.397 101.454 11.2003L101.454 13.0498L103.591 13.0498C103.593 13.0498 103.595 13.0498 103.596 13.0498C103.596 11.7517 103.587 7.29189 103.587 7.29189ZM99.0531 11.4477C98.1528 11.4477 97.6787 11.1479 97.6787 10.4995C97.6787 9.74088 98.2945 9.47277 99.8269 9.14035C100.759 8.93545 101.249 8.76107 101.454 8.50821L101.454 9.04553C101.454 10.0101 100.649 11.4477 99.0531 11.4477Z" fill="#22154F"/>
<path d="M30.4857 3.03589L30.4955 3.03589C31.2039 3.03589 31.7772 2.46151 31.7772 1.75417C31.7772 1.04247 31.1974 0.467001 30.4857 0.47245L30.4759 0.47245C29.7718 0.4779 29.204 1.0501 29.204 1.75417C29.204 2.46151 29.7772 3.03589 30.4857 3.03589Z" fill="#22154F"/>
<path d="M76.3702 3.03589L76.38 3.03589C77.0884 3.03589 77.6617 2.46151 77.6617 1.75417C77.6617 1.04247 77.0819 0.467001 76.3702 0.47245L76.3604 0.47245C75.6563 0.4779 75.0885 1.0501 75.0885 1.75417C75.0885 2.46151 75.6618 3.03589 76.3702 3.03589Z" fill="#22154F"/>
<path d="M50.2629 0.692627C46.869 0.692627 44.1083 3.45333 44.1083 6.84727C44.1083 10.2412 46.869 13.0019 50.2629 13.0019C53.6569 13.0019 56.4176 10.2412 56.4176 6.84727C56.4176 3.45333 53.6569 0.692627 50.2629 0.692627ZM50.2629 10.8036C48.081 10.8036 46.3066 9.02815 46.3066 6.84727C46.3066 4.66639 48.0821 2.89095 50.2629 2.89095C52.4449 2.89095 54.2193 4.66639 54.2193 6.84727C54.2193 9.02815 52.4438 10.8036 50.2629 10.8036Z" fill="#22154F"/>
<path d="M3.00285 10.2685L3.00285 2.94002C6.19842 2.94002 7.90956 1.09155 9.976 1.09155L9.976 3.50458C8.00656 3.60267 7.00604 4.74053 5.2949 4.86913L5.2949 5.83369C7.20004 5.83369 8.07086 4.62827 9.976 4.53453L9.976 6.75465C8.62017 6.75465 7.20004 8.05381 5.26329 8.05381L5.29599 9.88156C5.29599 9.88156 8.55696 9.49465 11.4299 11.7867L10.0414 13.6264C10.0414 13.6264 6.13521 10.3012 1.3898 13.6264L0.000183152 11.7856C0.000183152 11.7856 1.32332 10.6881 3.00285 10.2685Z" fill="#22154F"/>
</svg>

<svg fill="none" xmlns="http://www.w3.org/2000/svg" viewBox="0 0 110 16">
  <path
    d="M19.847 12.98h2.323V8.267h3.648l.566-1.785H22.17V3.305c2.492-.706 5.924 0 5.924 0V1.059c-2.497-.545-5.5-.406-8.246.16v11.76ZM31.65 4.133h-2.322v8.847h2.323V4.133ZM39.169 3.959c-1.343 0-2.433.695-3.018 2.101V4.133l-2.291.237v8.61h2.306V8.51c0-1.628.696-2.623 1.975-2.623 1.343 0 1.912.822 1.912 2.228v4.865h2.306V7.466c0-1.058-.285-1.895-.869-2.544-.584-.647-1.358-.963-2.321-.963ZM63.52 4.039c-1.39 0-2.48.632-3.064 1.911V4.133h-2.291v11.618l2.306-.23v-4.263c.52 1.138 1.469 1.817 2.86 1.817 2.101 0 3.823-1.611 3.823-4.582 0-3.048-1.659-4.454-3.634-4.454Zm-.963 7.156c-1.643 0-2.243-1.059-2.243-2.639 0-1.564.679-2.685 2.243-2.685 1.596 0 2.243 1.106 2.243 2.685 0 1.564-.647 2.639-2.243 2.639ZM73.27 5.624l.175-1.895c-1.067-.008-2.433.295-2.433.295V.69L68.88.897l-.031 9.16c0 2.006.837 3.08 2.86 3.08.742 0 1.248-.142 1.737-.411v-1.832c-.443.19-.71.284-1.17.284-.821 0-1.264-.426-1.264-1.39v-3.87c.001.002.927-.28 2.258-.294ZM107.567.69l-2.133.207-.031 9.16c0 2.006.837 3.08 2.86 3.08.742 0 1.248-.142 1.737-.411v-1.832c-.442.19-.711.284-1.169.284-.822 0-1.265-.426-1.265-1.39V.689h.001ZM77.553 4.133H75.23v8.847h2.323V4.133ZM90.664 3.959c-1.327 0-2.37.71-2.954 2.038-.395-1.264-1.375-2.038-2.766-2.038-1.327 0-2.259.664-2.812 2.053V4.133l-2.29.24v8.607h2.306V8.51c0-1.628.505-2.623 1.769-2.623 1.31 0 1.69.822 1.69 2.228v4.865h2.306V8.51c0-1.628.506-2.623 1.77-2.623 1.31 0 1.69.822 1.69 2.228v4.865h2.306V7.466c.003-2.101-1.118-3.507-3.015-3.507ZM103.587 7.292c0-2.26-1.469-3.333-3.665-3.333-1.959 0-3.618.9-4.36 2.844l2.084.6c.316-1.011 1.027-1.642 2.165-1.642 1.137 0 1.579.457 1.579 1.026 0 .268-.11.474-.331.648-.205.158-.679.316-1.406.457-1.706.332-2.576.601-3.207.995-.647.427-1.09 1.012-1.09 2.022 0 1.391 1.09 2.228 2.797 2.228 1.456 0 2.722-.74 3.301-1.937v1.85h2.142c0-1.298-.009-5.758-.009-5.758Zm-4.534 4.156c-.9 0-1.374-.3-1.374-.949 0-.758.615-1.026 2.148-1.359.932-.205 1.422-.379 1.627-.632v.538c0 .964-.805 2.402-2.4 2.402ZM30.486 3.036h.01a1.282 1.282 0 1 0-.01-2.564h-.01a1.282 1.282 0 0 0 .01 2.564ZM76.37 3.036h.01a1.282 1.282 0 1 0-.01-2.564h-.01a1.282 1.282 0 0 0 .01 2.564ZM50.263.693a6.161 6.161 0 0 0-6.155 6.154 6.161 6.161 0 0 0 6.155 6.155 6.161 6.161 0 0 0 6.155-6.155A6.161 6.161 0 0 0 50.263.693Zm0 10.11a3.961 3.961 0 0 1-3.956-3.956 3.962 3.962 0 0 1 3.956-3.956 3.961 3.961 0 0 1 3.956 3.956 3.962 3.962 0 0 1-3.956 3.957ZM3.003 10.268V2.94c3.195 0 4.907-1.848 6.973-1.848v2.413c-1.97.098-2.97 1.236-4.681 1.364v.965c1.905 0 2.776-1.206 4.681-1.3v2.22c-1.356 0-2.776 1.3-4.713 1.3l.033 1.828s3.261-.387 6.134 1.905l-1.389 1.84s-3.906-3.326-8.651 0L0 11.785s1.323-1.098 3.003-1.518Z"
    fill="#22154F"
  />
</svg>
